X: 6
T: Hunter's House, The
C: Ed Reavy
Z: Benjamin Glauser
S: https://thesession.org/tunes/472#setting47023
R: reel
M: 4/4
L: 1/8
K: Gmaj
|:BddB cAFA|G2BG DGBG|BddB cAFA|GBAG FGEF|
DGGG AGGG|BGAF GABc|defg agfd|1 cAFA G3 A:|2 cAFA G2 GA||
|:B2gB aBgB|~B2 gf edcB|Aaaa baaf|dfaf gfed|
B2gB aBgB|BBgf edcB|cBAg fgaf|gdBd cAFA:|

